X:398
T:Une Jeune Pucelle
T:The Huron Carol
Z:Jack Campin, http://www.campin.me.uk/
F:Jack Campin's Nine-Note Tunebook
% last edit 23-12-2013
M:C
L:1/4
Q:1/2=96
K:GDor
D|GA Bc|BA GF|GG AF|G3 :|
d|dd AB|cB AA|BA AG|AG G
F|D2 GG|FG D2|G2 FD|G3 |]


% == French dance tunes =====================================================

